!!!COM: Haydn, Franz Joseph
!!!OTL: String Quartet in F-sharp Minor
!!!OPS: Opus 50
!!!ONM: No. 4
!!!OMD: Finale: Fuga. Allegro moderato
!!!OMV: 4
!!!SCT: H III:47
!!!SCA: Thematisch-bibliographisches Werkevererzeichnis (A. van Hoboken)
!!!YOR: Trautwein Edition
!!!ENC: Frances Bennion
!!!CDT: 1732/3/31/-1809/5/31/
!!!CNT: Oesterreich
!!!YEC: Copyright (c) 1994, 2000 Center for Computer Assisted Research in the Humanities
!!!YEM: Rights to all derivative editions reserved.
!!!YEM: Refer to licensing agreement for further details.
!!!YEN: United States of America
**kern	**kern	**kern	**kern
*k[f#c#g#]	*k[f#c#g#]	*k[f#c#g#]	*k[f#c#g#]
*f#:	*f#:	*f#:	*f#:
*clefF4	*clefC3	*clefG	*clefG
*M6/8	*M6/8	*M6/8	*M6/8
8r	2.r	2.r	2.r
8d	.	.	.
8c#	.	.	.
4E#	.	.	.
8G#	.	.	.
=2	=2	=2	=2
8F#	2.r	2.r	2.r
16F#	.	.	.
16E#	.	.	.
8F#	.	.	.
8G#	.	.	.
16G#	.	.	.
16F#	.	.	.
8G#	.	.	.
=3	=3	=3	=3
2A	8r	2.r	2.r
.	8a	.	.
.	8f#	.	.
.	4B#	.	.
8G#	.	.	.
8F#	8d#	.	.
=4	=4	=4	=4
4.E	8c#	2.r	2.r
.	16c#	.	.
.	16B#	.	.
.	8c#	.	.
8c#	8d#	.	.
8B#	16d#	.	.
.	16c#	.	.
8G#	8d#	.	.
=5	=5	=5	=5
8c#	8e	8r	2.r
8B	8e#	8dd	.
8A	8f#	8cc#	.
8G#	8B	4e#	.
8A	8c#	.	.
8B	8d	8g#	.
=6	=6	=6	=6
4A	[2.c#	8f#	2.r
.	.	16f#	.
.	.	16e#	.
4F#	.	8f#	.
.	.	8g#	.
8E#	.	16g#	.
.	.	16f#	.
8C#	.	8g#	.
=7	=7	=7	=7
4F#	4c#]	2a	8r
.	.	.	8aa
2r	16d#	.	8ff#
.	16e	.	.
.	8f#	.	4b#
.	8e	8g#	.
.	8d#	8f#	8dd#
=8	=8	=8	=8
2.r	4e	2g#	8cc#
.	.	.	16cc#
.	.	.	16b#
.	4c#	.	8cc#
.	.	.	8dd#
.	8B#	16g#	16dd#
.	.	16a	16cc#
.	8G#	16f#	8dd#
.	.	16g#	.
=9	=9	=9	=9
8r	8c#	8e	8ee
8D	8B	8g#	8ee#
8C#	16A	8a	8ff#
.	16F#	.	.
4EE#	8C#	[4.b	16gg#
.	.	.	16bb
.	8c#	.	16aa
.	.	.	16gg#
8GG#	8c#	.	16ff#
.	.	.	16ee#
=10	=10	=10	=10
8FF#	4c#	8b]	2ff#
16FF#	.	8a	.
16EE#	.	.	.
8FF#	2r	8a	.
8GG#	.	8b	.
16GG#	.	16b	8ee
16FF#	.	16a	.
8GG#	.	8b	8dd
=11	=11	=11	=11
4.AA	8r	8b	8cc#
.	8f#	8a	16cc#
.	.	.	16b
.	8e	2r	8cc#
4.BB	4G#	.	8dd
.	.	.	16dd
.	.	.	16cc#
.	[8B	.	8dd
=12	=12	=12	=12
4.C#	8B]	2.r	8ee
.	16A	.	16ee
.	16B	.	16dd
.	4c#	.	8ee
4D	.	.	8ff#
.	8B	.	16ff#
.	.	.	16ee
8D#	[8A	.	8ff#
=13	=13	=13	=13
4E	4A]	8r	4b
.	.	8ccc#	.
4r	16G#	8bb	2r
.	16A	.	.
.	8B	4dd#	.
8a	8b	.	.
8a	8b	8ff#	.
=14	=14	=14	=14
8a	[2.b	8ee	2.r
8g#	.	16ee	.
.	.	16dd#	.
4e	.	8ee	.
.	.	8ff#	.
8d#	.	16ff#	.
.	.	16ee	.
8B	.	8ff#	.
=15	=15	=15	=15
8E	8b]	8gg#	2.r
16E	8ee	16gg#	.
16D#	.	16ff#	.
8E	4ee	8gg#	.
4F#	.	8aa	.
.	8dd#	16gg#	.
.	.	16aa	.
8G#	[8dd	16bb	.
.	.	16gg#	.
=16	=16	=16	=16
4.A	8dd]	8ee	8r
.	8cc#	2r	8ff#
.	8c#	.	8ee
[4.E	16d	.	4g#
.	16f#	.	.
.	16e	.	.
.	16d	.	.
.	16c#	8r	8b
.	16B	.	.
=17	=17	=17	=17
2.E]	8c#	2.r	8a
.	8e	.	16a
.	.	.	16g#
.	4a	.	8a
.	.	.	8b
.	8g#	.	16b
.	.	.	16a
.	8g#	.	8b
=18	=18	=18	=18
[2.AA	4..g	8r	4cc#
.	.	8bb	.
.	.	8aa	16c#
.	.	.	16d
.	.	4cc#	16e
.	16b	.	16g
.	16a	.	16f#
.	16g	.	16e
.	16f#	8ee	16d
.	16e	.	16c#
=19	=19	=19	=19
4.AA]	8f#	8dd	4d
.	16f#	16dd	.
.	16g	16cc#	.
.	8f#	8dd	2r
4.AA#	8e	8gg	.
.	8d	8ff#	.
.	8c#	8ee	.
=20	=20	=20	=20
4BB	4B	4dd	8r
.	.	.	8gg
2r	8r	2r	8ff#
.	8e	.	4a#
.	16e	.	.
.	16d	.	.
.	8e	.	8cc#
=21	=21	=21	=21
2r	4d	8r	8b
.	.	8g	16b
.	.	.	16a#
.	2r	8f#	8b
.	.	4.A#	8cc#
8G	.	.	16cc#
.	.	.	16b
8F#	.	.	8cc#
=22	=22	=22	=22
4BB	4.r	4B	8dd
.	.	.	8aa
2r	.	2r	8gg#
.	8f#	.	4b#
.	16f#	.	.
.	16e	.	.
.	8f#	.	8dd#
=23	=23	=23	=23
2r	4e	8r	8cc#
.	.	8a	16cc#
.	.	.	16b#
.	4.r	8g#	8cc#
.	.	4.B#	8dd#
8A	.	.	16dd#
.	.	.	16cc#
8G#	[8g#	.	8dd#
=24	=24	=24	=24
8C#	8g#]	4c#	4.ee
16C#	8a	.	.
16BB#	.	.	.
8C#	4a	2r	.
8D#	.	.	4.ff#
16D#	8b	.	.
16C#	.	.	.
8D#	[8b	.	.
=25	=25	=25	=25
8E	8b]	2.r	8gg#
8e	8g#	.	8ccc#
8d#	8f#	.	8bb
8r	8r	.	8ee
8c#	8e	.	8aa
8B	8d#	.	8gg#
=26	=26	=26	=26
8r	8r	2r	8cc#
8A	8c#	.	8ff#
8G#	8B	.	8ee#
4E#	4G#	.	4bb
.	.	8dd	.
8F#	8A	8cc#	8aa
=27	=27	=27	=27
4G#	4B	4e#	8gg#
.	.	.	8ff#
8B	8d	8g#	8ee#
8A	8c#	8f#	4ff#
8G#	8B	16f#	.
.	.	16e#	.
8F#	16A	8f#	8r
.	16f#	.	.
=28	=28	=28	=28
4.C#	8f#	8g#	8r
.	8e#	16g#	8dd
.	.	16f#	.
.	16e#	8g#	8cc#
.	16g#	.	.
4.F#	8g#	8a	8r
.	8f#	16a	8dd
.	.	16g#	.
.	16f#	8a	8cc#
.	16a	.	.
=29	=29	=29	=29
4.E 4.d	8g#	8b	8r
.	16g#	16b	8ff#
.	16f#	16a	.
.	8g#	8b	8ee
4.c# 4.E	8a	8cc#	8r
.	16a	16cc#	8ff#
.	16g#	16b	.
.	8a	8cc#	8ee
=30	=30	=30	=30
4E	4e	8b	4g#
.	.	16b	.
.	.	16cc#	.
8E#	2r	8dd	4b
4F#	.	8cc#	.
.	.	16cc#	8a#
.	.	16dd#	.
8F##	.	8ee	[8cc#
=31	=31	=31	=31
[2.G#	8r	8dd#	8cc#]
.	8a	16dd#	16b#
.	.	16ee	16cc#
.	8g#	8ff#	8dd#
.	8r	8ee	8cc#
.	16c#	8gg#	8ee
.	16d#	.	.
.	16e	8ee	8cc#
.	16f#	.	.
=32	=32	=32	=32
2.G#]	8g#	8dd#	8b#
.	8a	16b#	16dd#
.	.	16cc#	16ee
.	8g#	16dd#	16ff#
.	.	16ee	16gg#
.	4.B#	8ff#	8aa
.	.	8ee	8gg#
.	.	8dd#	8ff#
=33	=33	=33	=33
8r	8c#	4cc#	8ee
8d	16g#	.	16ee#
.	16a	.	16ff#
8c#	16b	2r	16gg#
.	16cc#	.	16aa
4.E#	8dd	.	8bb
.	8cc#	.	8aa
.	8b	.	8gg#
=34	=34	=34	=34
4F#	8a	8r	8ff#
.	16f#	16a	16dd#
.	16e	16g#	16ee
2r	16d#	16f#	16ff#
.	16c#	16e	16gg#
.	8B	8d#	8aa
.	8c#	8e	8gg#
.	8d#	8f#	8ff#
=35	=35	=35	=35
4.r	4e	4e	8gg#
.	.	.	8ccc#
.	2r	2r	8bb
16BB	.	.	4dd#
16F#	.	.	.
16A	.	.	.
16c#	.	.	.
16B	.	.	8ff#
16A	.	.	.
=36	=36	=36	=36
8G#	4.r	16G#	8ee
.	.	16B	.
2r	.	16e	16ee
.	.	16g#	16dd#
.	.	16b	8ee
.	.	16g#	.
.	16D#	8f#	8ff#
.	16F#	.	.
.	16A	4r	16ff#
.	16B	.	16ee
8r	16d#	.	8ff#
.	16B	.	.
=37	=37	=37	=37
2.r	4e	16e	8gg#
.	.	16b	.
.	.	16e	8ccc#
.	.	16b	.
.	2r	16e	8bb
.	.	16b	.
.	.	16a	4dd#
.	.	16b	.
.	.	16a	.
.	.	16b	.
.	.	16a	8ff#
.	.	16b	.
=38	=38	=38	=38
2.r	2.r	16g#	8ee
.	.	16b	.
.	.	16g#	8ccc#
.	.	16b	.
.	.	16g#	8bb
.	.	16b	.
.	.	16d#	4ff#
.	.	16b	.
.	.	16d#	.
.	.	16b	.
.	.	16d#	8aa
.	.	16b	.
=39	=39	=39	=39
16E	4r	8e	8gg#
16B	.	.	.
16E	.	8r	8ccc#
16B	.	.	.
16E	8e	8g#	8bb
16B	.	.	.
16A	8d#	8f#	8dd#
16B	.	.	.
16A	8r	8r	8ccc#
16B	.	.	.
16A	8d#	8f#	8bb
16B	.	.	.
=40	=40	=40	=40
16G#	8e	8g#	8ee
16B	.	.	.
16G#	8r	8r	8ccc#
16B	.	.	.
16G#	8e	8g#	8bb
16B	.	.	.
16D#	8f#	8a	8ff#
16B	.	.	.
16D#	8r	8r	8ccc#
16B	.	.	.
16D#	8f#	8a	8bb
16B	.	.	.
=41	=41	=41	=41
16E	8e	8g#	8gg#
16B	.	.	.
16E	8r	8r	8ccc#
16B	.	.	.
16E	8e	8g#	8bb
16B	.	.	.
16D	8d	8b	8ff#
16B	.	.	.
16D	8r	8r	8ccc#
16B	.	.	.
16D	8f#	8b	8bb
16B	.	.	.
=42	=42	=42	=42
[2.C#	16e#	16g#	8ee#
.	16g#	16b	.
.	16e#	16g#	8ddd
.	16g#	16b	.
.	16e#	16g#	8ccc#
.	16g#	16b	.
.	16a	16f#	8ff#
.	16f#	16a	.
.	16a	16f#	8ddd
.	16f#	16a	.
.	16a	16f#	8ccc#
.	16f#	16a	.
=43	=43	=43	=43
2.C#_	16g#	16e#	8gg#
.	16e#	16g#	.
.	16g#	16e#	8ddd
.	16e#	16g#	.
.	16g#	16e#	8ccc#
.	16e#	16g#	.
.	8a	16f#	8aa
.	.	16b#	.
.	8A	16f#	8gg#
.	.	16b#	.
.	8a	16f#	8ff#
.	.	16b#	.
=44	=44	=44	=44
2.C#_	8g#	8cc#	8ee#
.	8b	8dd	8ee#
.	8a	8cc#	8ff#
.	8g#	8b	8gg#
.	16g#	16b	8gg#
.	16a	16cc#	.
.	16f#	16a	8aa
.	16g#	16b	.
=45	=45	=45	=45
4C#]	4e#	4g#	4bb
2r	2r	2r	2r
=46	=46	=46	=46
8r	2.r	2.r	2.r
8d	.	.	.
8c#	.	.	.
4E#	.	.	.
8G#	.	.	.
=47	=47	=47	=47
8F#	8r	2.r	2.r
16F#	8a	.	.
16E#	.	.	.
8F#	8f#	.	.
8G#	4B#	.	.
16G#	.	.	.
16F#	.	.	.
8G#	8d#	.	.
=48	=48	=48	=48
2A	8c#	8r	2.r
.	16c#	8aa	.
.	16B#	.	.
.	8c#	8ff#	.
.	8d#	4b#	.
8G#	16d#	.	.
.	16e	.	.
8F#	8f#	8dd#	.
=49	=49	=49	=49
4E#	8g#	8cc#	8r
.	8b	8g#	8ddd
8F#	8a	8a	8ccc#
8G#	8g#	8b	4ee#
8A	8f#	8cc#	.
8B	8e#	8dd	8gg#
=50	=50	=50	=50
4A	8f#	8cc#	8ff#
.	8f#	8a	8ddd
2r	8e	8g#	8ccc#
.	8r	8r	8ff#
.	8d	8f#	8bb
.	8c#	8e	8aa
=51	=51	=51	=51
8r	4B	8r	8dd
8B	.	8d	8gg#
8A	2r	8c#	8ff#
8G#	.	8B	8ee#
8G#	.	8b	8ee#
8F#	.	8a	8ff#
=52	=52	=52	=52
4C#	8r	4.g#	4.ee#
.	8dd	.	.
2r	8cc#	.	.
.	8r	4.a	4.ff#
.	8b#	.	.
.	8b#	.	.
=53	=53	=53	=53
4C#	8r	4.g#	4.ee#
.	8dd	.	.
2r	8cc#	.	.
.	8r	4.a	4.ff#
.	8b#	.	.
.	8b#	.	.
=54	=54	=54	=54
8r	8r	4g#	4ee#
8d	8b	.	.
8c#	8a	8a	8ff#
4E#	8g#	8b	8gg#
.	4r	8a	8aa
8G#	.	8g#	8bb
=55	=55	=55	=55
2.F#	8r	8cc#	4aa#
.	8g	8ee	.
.	8f#	8dd	8bb
.	4A#	8ee	8ccc#
.	.	8dd	8bb
.	8c#	8cc#	8aa#
=56	=56	=56	=56
8r	4B	4dd	4bb
8EE#	.	.	.
8FF#	2r	8cc#	8aa
4D	.	8b	8gg#
.	.	8a	8ff#
8BB	.	8g#	8ee#
=57	=57	=57	=57
2.BB#	2.d#	2.a	8ff#
.	.	.	16ff#
.	.	.	16ee#
.	.	.	8ff#
.	.	.	8aa
.	.	.	8gg#
.	.	.	8ff#
=58	=58	=58	=58
[2.C#	4e#	8g#	4ee#
.	.	8dd	.
.	8r	8cc#	4r
.	8d	4e#	.
.	8c#	.	8G#
.	8E#	8g#	8B
=59	=59	=59	=59
2.C#_	4F#	8f#	4A
.	.	8dd	.
.	8r	8cc#	4r
.	8d	4g#	.
.	8c#	.	8e#
.	8E#	8b	8g#
=60	=60	=60	=60
2.C#_	4F#	4a	8f#
.	.	.	8dd
.	8r	4r	8cc#
.	8d	.	4e#
.	8c#	8G#	.
.	8E#	8B	8g#
=61	=61	=61	=61
2.C#_	4F#	4A	8f#
.	.	.	8dd
.	8r	4r	8cc#
.	8d	.	4g#
.	8c#	8e#	.
.	8E#	8g#	8b
=62	=62	=62	=62
8C#]	8F#	8f#	8a
8d	8dd	8dd	8dd
8c#	8cc#	8cc#	8cc#
8E#	8e#	8e#	8e#
8d	8dd	8dd	8dd
8c#	8cc#	8cc#	8cc#
=63	=63	=63	=63
8D	8d	8d	8d
8d	8dd	8dd	8dd
8c#	8cc#	8cc#	8cc#
8BB	8B	8B	8B
8d	8dd	8dd	8dd
8c#	8cc#	8cc#	8cc#
=64	=64	=64	=64
8GG#	8G#	8G#	8G#
8d	8dd	8dd	8dd
8c#	8cc#	8cc#	8cc#
8EE#	8dd	8gg#	8bb
8EE#	8dd	8gg#	8bb
8EE#	8dd	8gg#	8bb
=65	=65	=65	=65
2.EE#	4.dd	[4.gg#	4..bb
.	4.cc#	4.gg#] 4.b	.
.	.	.	16ddd
.	.	.	16ccc#
.	.	.	16bb
.	.	.	16aa
.	.	.	16gg#
=66	=66	=66	=66
4FF#	16cc#	16ff#	8aa
.	16a	16cc#	.
.	16f#	16a	8ccc#
.	16a	16cc#	.
8r	16f#	16a	8ccc#
.	16a	16cc#	.
4C#	16e#	16g#	8ccc#
.	16g#	16cc#	.
.	16e#	16g#	8bb
.	16g#	16cc#	.
8r	16e#	16g#	8gg#
.	16g#	16cc#	.
=67	=67	=67	=67
4F#	16f#	16a	8aa
.	16a	16cc#	.
.	16f#	16a	8ccc#
.	16a	16cc#	.
8r	16f#	16a	8ccc#
.	16a	16cc#	.
4C#	16g#	16b	8ccc#
.	16b	16cc#	.
.	16g#	16e#	8bb
.	16b	16cc#	.
8r	16g#	16b	8ee#
.	16b	16cc#	.
=68	=68	=68	=68
4FF#	16f#	16a	8ff#
.	16a	16cc#	.
.	16f#	16a	8ccc#
.	16a	16cc#	.
8r	16f#	16a	8ccc#
.	16a	16cc#	.
4C#	16e#	16g#	8ccc#
.	16g#	16cc#	.
.	16e#	16g#	8bb
.	16g#	16cc#	.
8r	16e#	16g#	8gg#
.	16g#	16cc#	.
=69	=69	=69	=69
4F#	16f#	16a	8aa
.	16a	16cc#	.
.	16f#	16a	8fff#
.	16a	16cc#	.
8r	16f#	16a	8fff#
.	16a	16cc#	.
4F#	16e	16a#	8fff#
.	16f#	16cc#	.
.	16a#	16a#	8eee
.	16f#	16cc#	.
8r	16e	16a#	8ccc#
.	16c#	16cc#	.
=70	=70	=70	=70
8BB	16f#	8b	8ddd
.	16b	.	.
8GG	16dd	8d 8b	8ggg
.	16b	.	.
8GG	16g	8b 8d	8ggg
.	16d	.	.
4GG	4B	4.b 4.d	8ggg
.	.	.	8ddd
8AA	8r	.	8bb
=71	=71	=71	=71
4.BB	4.d	4.g 4.b	4.gg
4.BB#	4.d#	[4.a	[4.ff#
=72	=72	=72	=72
2.C#	4.c#	4.a]	2ff#]
.	4.B	4.g#	.
.	.	.	8gg#
.	.	.	8ee#
=73	=73	=73	=73
8r	8r	8f#	8ff#
8EE	8E	4.r	4.r
8DD	8D	.	.
8.CC#	8C#	.	.
.	4r	8a	8aa
8.r	.	.	.
.	.	8g	8gg
=74	=74	=74	=74
8r	8r	8f#	8ff#
8EE	8E	4.r	4.r
8DD	8D	.	.
8CC#	8C#	.	.
4r	4r	8a	8aa
.	.	8g	8gg
=75	=75	=75	=75
8r	8r	8f#	8ff#
8EE	8E	4.r	4.r
8DD	8D	.	.
8CC#	8C#	.	.
4r	4r	8a	8aa
.	.	8g	8gg
=76	=76	=76	=76
8r	8r	8f#	8ff#
8DD	8D	4.r	4.r
8CC#	8C#	.	.
[4.BBB#	[4.BB#	.	.
.	.	8a	8aa
.	.	8g#	8gg#
=77	=77	=77	=77
8BBB#]	8BB#]	[2.f#	[2.ff#
8DD#	8D#	.	.
8FF#	8F#	.	.
8AA	8A	.	.
8BB#	8B#	.	.
8D#	8d#	.	.
=78	=78	=78	=78
4F#	4f#	8f#]	8ff#]
.	.	8A	8a
2r	2r	8B#	8b#
.	.	8d#	8dd#
.	.	8f#	8ff#
.	.	8a	8aa
=79	=79	=79	=79
4.r	2.r	8f#	8ff#
.	.	8d#	8dd#
.	.	8B#	8b#
8BB#	.	4A	8a
8D#	.	.	8f#
8F#	.	8r	8d#
=80	=80	=80	=80
8A	[2.B#	[2.f# [2.a	8B#
8F#	.	.	8d#
8D#	.	.	8f#
8BB#	.	.	8a
8D#	.	.	8f#
8F#	.	.	8d#
=81	=81	=81	=81
8A	2.B#_	2.f#_ 2.a_	8B#
8F#	.	.	8d#
8D#	.	.	8f#
8BB#	.	.	8a
8D#	.	.	8f#
8F#	.	.	8d#
=82	=82	=82	=82
4A	4B#]	4f#] 4a]	4B#
2r	2r	2r	2r
=83	=83	=83	=83
4C#	4f#	4a	8r
.	.	.	8dd
8r	8r	8r	8cc#
4C#	4c#	4g#	4e#
8r	8r	8r	8g#
=84	=84	=84	=84
8r	4F#	4f#	4f#
8d	.	.	.
8c#	8r	8r	2r
4E#	4C#	16c#	.
.	.	16e#	.
.	.	16g#	.
.	.	16b	.
8G#	8r	16a	.
.	.	16g#	.
=85	=85	=85	=85
4F#	8r	4a	4.r
.	8dd	.	.
8r	8cc#	4.r	.
4C#	4e#	.	16g#
.	.	.	16a
.	.	.	16b
.	.	.	16dd
8r	8g#	8e#	16cc#
.	.	.	16b
=86	=86	=86	=86
4F#	8f#	8f#	4a
.	4r	8dd	.
8r	.	8cc#	8r
8C#	8b	4e#	16cc#
.	.	.	16gg#
8C#	8g#	.	16bb
.	.	.	16gg#
8C#	8e#	8g#	16bb
.	.	.	16gg#
=87	=87	=87	=87
4FF#	4f#	4a	4ff#
2r	2r	2r	2r
==	==	==	==
*-	*-	*-	*-
!!!RWG1: This file contains only pitch and duration data.
!!!RWG2: Transposing instruments are not transposed.
!!!RWG3: Spines may have incompatible meters.
!!!RWG4: Durations of rests and tied notes may be interpreted.
!!!RWG: Key is interpreted using the Humdrum key tool.
!!!GTL: 6 Quartetti ("Prussian")
!!!AFT: stage1
!!!END: 1997/04/15
!!!KEY: 1263587494
!!!EMD: Converted from MuseData to Humdrum Dec 16, 2000, by Andreas Kornstaedt using muse2kern.
!!!EMD: Manual editing by Craig Sapp, Nov 2001
